X:36
T:Untitled [Atkinson MS #7]
M:9/4
L:1/4
S:Atkinson MS 1694
B:SOITD #147
N:one sharp in M
Z:ps
K:GDORIAN
G>AG B2g^f>e/f/g|G>AGB2dcAG|G>AGB2g^f2d|f2ccfdcAF||/
f2ddBddBd|f2ddBdcAF|f2ddBddBd|c>dcfedcAF||

